X: 511
T:Varnenska Tropanka
O:Bulgaria
F: http://www.youtube.com/watch?v=yL19ezrng9A
M:2/4
L:1/8
Q:1/4=180
%%MIDI gchord zzfz
K:FDor
|:edc2     |d2B2     |B2f2   |f4    |edc2    |d2B2    |F2B2   |B4     :|
|:"Ab"edc2 |"Bb"d2B2 |B2f2   |f4    |"Ab"edc2|"Bb"d2B2|F2B2   |B4     :|
|:"Bb"B2AB |"F"cBA2  |AGF2   |"Bb"B4|B2AB    |"F"cBA2 |AGF2   |"Bb"B4 |
  "Bb"B_dcB|"F"cBA2  |AGF2   |"Bb"B4|B2AB    |"F"cBA2 |AGF2   |"Bb"F4 :|
|:"F"AGAG  |"Bb"F2B2 |"F"AGAG|"Bb"F4|"F"AGAG |"Bb"F2B2|"F"AGAG|"Bb"F4 :|
  "F"EFA2- |A2BA     |c2BA   |A4    |cBc2    |A2BG    |A4     |A4     |
  "Bb"_dddc|"Eb"eee_d|"F"cccB|BA3   |"Bb"BBBA|"F"ccAG |"Bb"F4 |F4     |



